X:62
T: SIPP SAPP SUNNNE
N: K0925
O: Europa, Mitteleuropa, Deutschland, Paderborn
R: Kinder - Lied, Pflanzen
M: 2/4
L: 1/16
K: G
 | B4A4 | G4D2
DD | B2B2A2A2 | G4D2
D2 | B2B2A2A2 | G4D4
D2D2D2D2 | B2B2A2A2 | G4D4

